svg/fluentui-system-icons/ic_fluent_pause_off_20_filled.svg

<svg width="20" height="20" viewBox="0 0 20 20" fill="none" xmlns="http://www.w3.org/2000/svg">
<path d="M3 3.70711V16.5C3 17.3284 3.67157 18 4.5 18H6.5C7.32843 18 8 17.3284 8 16.5V8.70711L12 12.7071V16.5C12 17.3284 12.6716 18 13.5 18H15.5C15.9889 18 16.4232 17.7661 16.697 17.4041L17.1464 17.8536C17.3417 18.0488 17.6583 18.0488 17.8536 17.8536C18.0488 17.6583 18.0488 17.3417 17.8536 17.1464L2.85355 2.14645C2.65829 1.95118 2.34171 1.95118 2.14645 2.14645C1.95118 2.34171 1.95118 2.65829 2.14645 2.85355L3 3.70711ZM12 9.87866L17 14.8787V3.5C17 2.67157 16.3284 2 15.5 2H13.5C12.6716 2 12 2.67157 12 3.5V9.87866ZM4.16003 2.03869L8 5.87866V3.5C8 2.67157 7.32843 2 6.5 2H4.5C4.38307 2 4.26926 2.01338 4.16003 2.03869Z" fill="#212121"/>
</svg>

<svg xmlns="http://www.w3.org/2000/svg" width="20" height="20"><path d="M3 3.707V16.5A1.5 1.5 0 0 0 4.5 18h2A1.5 1.5 0 0 0 8 16.5V8.707l4 4V16.5a1.5 1.5 0 0 0 1.5 1.5h2c.489 0 .923-.234 1.197-.596l.45.45a.5.5 0 0 0 .707-.708l-15-15a.5.5 0 1 0-.708.708L3 3.707Zm9 6.172 5 5V3.5A1.5 1.5 0 0 0 15.5 2h-2A1.5 1.5 0 0 0 12 3.5v6.379Zm-7.84-7.84L8 5.879V3.5A1.5 1.5 0 0 0 6.5 2h-2c-.117 0-.23.013-.34.039Z"/></svg>
